picto/luggage-lockers-framed.svg

<svg class="color-immutable" width="30" height="30" viewBox="0 0 30 30" fill="none" xmlns="http://www.w3.org/2000/svg"><path d="M30 30H0V0H30V30Z" fill="#2D327D"/><path d="M25.5 3C26.325 3 27 3.675 27 4.5V25.5C27 26.325 26.325 27 25.5 27H4.5C3.675 27 3 26.325 3 25.5V4.5C3 3.675 3.675 3 4.5 3H25.5ZM25.5 2.625H4.5C3.46613 2.625 2.625 3.46613 2.625 4.5V25.5C2.625 26.5339 3.46613 27.375 4.5 27.375H25.5C26.5339 27.375 27.375 26.5339 27.375 25.5V4.5C27.375 3.46613 26.5339 2.625 25.5 2.625Z" fill="white"/><path d="M6 10.875V24H24V10.875H6ZM22.875 22.875H7.125V12H22.875V22.875Z" fill="white"/><path d="M10.1249 22.125H19.874C20.4954 22.125 21 21.6218 21 20.9998V15.3002C21 14.6811 20.4954 14.176 19.874 14.176H16.8002V13.6895C16.8002 13.1714 16.3793 12.75 15.8619 12.75H14.1369C13.6204 12.75 13.2006 13.1714 13.2006 13.6895V14.176H10.1248C9.50433 14.176 8.99988 14.6811 8.99988 15.3002V20.9998C8.99995 21.6218 9.5044 22.125 10.1249 22.125ZM13.875 13.4259H16.1248V14.176H13.875V13.4259Z" fill="white"/><path d="M12.375 8.43749L13.125 9.18749L13.875 8.43749L14.625 9.18749L15.5625 8.24999L14.625 7.31249H10.3364C9.97832 6.51682 9.17912 5.96249 8.25002 5.96249C6.98665 5.96249 5.96252 6.98662 5.96252 8.24999C5.96252 9.51337 6.98665 10.5375 8.25002 10.5375C9.1792 10.5375 9.97832 9.98317 10.3364 9.18749H11.625L12.375 8.43749ZM7.12502 8.99999C6.7108 8.99999 6.37502 8.66422 6.37502 8.24999C6.37502 7.83577 6.7108 7.49999 7.12502 7.49999C7.53925 7.49999 7.87502 7.83577 7.87502 8.24999C7.87502 8.66422 7.53925 8.99999 7.12502 8.99999Z" fill="white"/></svg>

<svg class="color-immutable" width="30" height="30" viewBox="0 0 30 30" fill="none" xmlns="http://www.w3.org/2000/svg"><g clip-path="url(#a)"><path d="M30 30H0V0h30v30Z" fill="#2D327D"/><path d="M25.5 3c.825 0 1.5.675 1.5 1.5v21c0 .825-.675 1.5-1.5 1.5h-21c-.825 0-1.5-.675-1.5-1.5v-21C3 3.675 3.675 3 4.5 3h21Zm0-.375h-21A1.877 1.877 0 0 0 2.625 4.5v21c0 1.034.841 1.875 1.875 1.875h21a1.877 1.877 0 0 0 1.875-1.875v-21A1.877 1.877 0 0 0 25.5 2.625Z" fill="#fff"/><path d="M6 10.875V24h18V10.875H6Zm16.875 12H7.125V12h15.75v10.875Z" fill="#fff"/><path d="M10.125 22.125h9.749c.621 0 1.126-.503 1.126-1.125v-5.7c0-.619-.505-1.124-1.126-1.124H16.8v-.486a.94.94 0 0 0-.938-.94h-1.725a.939.939 0 0 0-.936.94v.486h-3.076c-.62 0-1.125.505-1.125 1.124V21c0 .622.504 1.125 1.125 1.125Zm3.75-8.7h2.25v.751h-2.25v-.75ZM12.375 8.437l.75.75.75-.75.75.75.938-.937-.938-.938h-4.289a2.287 2.287 0 1 0 0 1.875h1.289l.75-.75ZM7.125 9a.75.75 0 1 1 0-1.5.75.75 0 0 1 0 1.5Z" fill="#fff"/></g><defs><clipPath id="a"><path fill="#fff" d="M0 0h30v30H0z"/></clipPath></defs></svg>
